icons/leetcode-light.svg

<svg width="256" height="256" viewBox="0 0 256 256" fill="none" xmlns="http://www.w3.org/2000/svg">
<path d="M196 0H60C26.8629 0 0 26.8629 0 60V196C0 229.137 26.8629 256 60 256H196C229.137 256 256 229.137 256 196V60C256 26.8629 229.137 0 196 0Z" fill="#F4F2ED"/>
<g clip-path="url(#clip0_302_14)">
<path d="M162.905 174.437C167.15 170.197 174.021 170.208 178.252 174.462C182.483 178.715 182.472 185.6 178.227 189.84L159.379 208.667C141.99 226.036 113.635 226.288 95.9528 209.252C95.8506 209.154 87.9771 201.431 62.0034 175.953C44.7238 159.005 43.0023 131.884 59.2629 114.468L89.5807 81.9941C105.719 64.7071 135.468 62.8178 153.92 77.7448L181.456 100.021C186.119 103.794 186.847 110.64 183.083 115.313C179.318 119.986 172.486 120.716 167.823 116.943L140.287 94.667C130.637 86.8604 113.756 87.9325 105.43 96.8521L75.1113 129.326C67.1952 137.805 68.0622 151.464 77.1849 160.412C96.2579 179.12 110.957 193.538 110.974 193.555C120.167 202.412 135.031 202.28 144.057 193.264L162.905 174.437Z" fill="#FFA116"/>
<path fill-rule="evenodd" clip-rule="evenodd" d="M117.118 155.597C111.125 155.597 106.267 150.728 106.267 144.723C106.267 138.717 111.125 133.849 117.118 133.849H197.149C203.142 133.849 208 138.717 208 144.723C208 150.728 203.142 155.597 197.149 155.597H117.118Z" fill="#B3B3B3"/>
<path fill-rule="evenodd" clip-rule="evenodd" d="M132.106 36.4452C136.2 32.0596 143.067 31.8304 147.444 35.9334C151.82 40.0363 152.049 46.9176 147.955 51.3032L75.1117 129.327C67.1953 137.805 68.0623 151.463 77.1844 160.412L110.824 193.41C115.107 197.611 115.18 204.496 110.988 208.788C106.796 213.079 99.9253 213.153 95.6426 208.952L62.0024 175.953C44.7237 159.004 43.0023 131.883 59.2636 114.468L132.106 36.4452Z" fill="black"/>
</g>
<defs>
<clipPath id="clip0_302_14">
<rect width="160" height="189" fill="white" transform="translate(48 33)"/>
</clipPath>
</defs>
</svg>

<svg xmlns="http://www.w3.org/2000/svg" width="256" height="256" fill="none"><path fill="#F4F2ED" d="M196 0H60C26.863 0 0 26.863 0 60v136c0 33.137 26.863 60 60 60h136c33.137 0 60-26.863 60-60V60c0-33.137-26.863-60-60-60"/><g clip-path="url(#clip0_302_14)"><path fill="#FFA116" d="M162.905 174.437a10.836 10.836 0 0 1 15.347.025c4.231 4.253 4.22 11.138-.025 15.378l-18.848 18.827c-17.389 17.369-45.744 17.621-63.426.585-.102-.098-7.976-7.821-33.95-33.299-17.28-16.948-19-44.069-2.74-61.485L89.58 81.994c16.138-17.287 45.887-19.176 64.339-4.25l27.536 22.277c4.663 3.773 5.391 10.619 1.627 15.292s-10.597 5.403-15.26 1.63l-27.536-22.276c-9.65-7.807-26.531-6.734-34.857 2.185L75.11 129.326c-7.916 8.479-7.049 22.138 2.074 31.086l33.789 33.143c9.193 8.857 24.057 8.725 33.083-.291z"/><path fill="#B3B3B3" fill-rule="evenodd" d="M117.118 155.597c-5.993 0-10.851-4.869-10.851-10.874s4.858-10.874 10.851-10.874h80.031c5.993 0 10.851 4.868 10.851 10.874 0 6.005-4.858 10.874-10.851 10.874z" clip-rule="evenodd"/><path fill="#000" fill-rule="evenodd" d="M132.106 36.445a10.836 10.836 0 0 1 15.338-.512c4.376 4.103 4.605 10.985.511 15.37l-72.843 78.024c-7.917 8.478-7.05 22.136 2.072 31.085l33.64 32.998c4.283 4.201 4.356 11.086.164 15.378s-11.063 4.365-15.345.164l-33.64-32.999c-17.28-16.949-19-44.07-2.74-61.485z" clip-rule="evenodd"/></g><defs><clipPath id="clip0_302_14"><path fill="#fff" d="M48 33h160v189H48z"/></clipPath></defs></svg>
